X: 372
T: Mazurka No. 2.	 Op. 59
C: Fryderyk Chopin
%%abc-version 2.0
%%abcx-abcm2ps-target-version 5.9.1 (29 Sep 2008)
%%abc-creator hum2abc beta
%%abcx-conversion-date 2021/10/03 11:24:04
%%abc-edited-by Leszek Kubiak
%%abc-edited-by Marta Lawrence
%%abc-edited-by Emilia Ziętek
%%abcx-initial-encoding-date 2018-06-06
%%humdrum-veritas 2866288177
%%humdrum-veritas-data 452483808
%%linebreak <none>
%%barnumbers 0
L: 1/4
M: 3/4
N: Derived from 059-1-BR-002.krn
P: 3 MAZURKAS POUR PIANO
Q: "Allegretto."
%%staves {1 2}
V: 1 clef=treble
V: 2 clef=bass
K: Ab
[V:1] zc3/d/ | 
[V:2] A,,,[EA,E,][EA,E,] | 
[V:1] c/B/Ac | 
[V:2] A,,[_GCA,][GEA,] | 
[V:1] de3/f/ | 
[V:2] D,[FDA,][FDA,] | 
[V:1] =d/f/ea | 
[V:2] A,,[ECA,][ECE,] | 
[V:1] zc3/{/e} d/ | 
[V:2] A,,,[CA,E,][CA,=E,] | 
[V:1] c/B/Ac | 
[V:2] A,,[CF,][EA,F,] | 
[V:1] FG3/A/ | 
[V:2] B,,[=DA,][DA,] | 
[V:1] =A/c/B/e/F | 
[V:2] E,,[_D_A,E,][DG,E,] | 
[V:1] E/ z<cd/ | 
[V:2] A,,,[CA,E,][EA,E,] | 
[V:1] c/B/Ac | 
[V:2] A,,[FCA,][_GEA,] | 
[V:1] de3/f/ | 
[V:2] D,[FDA,][FDA,] | 
[V:1] =d/f/ec' | 
[V:2] A,,[ECA,][ECE,] | 
[V:1] zc{/e} d3//c// | 
[V:2] G,,[=ECB,][ECB,] | 
[V:1] c/>B/Ac | 
[V:2] F,,[FCA,][=DA,F,] | 
[V:1] !wedge!Ge3/=B/ | 
[V:2] G,,[GCG,][F=DG,] | 
[V:1] c/a/gA | 
[V:2] C,[ECE,][ECF,] | 
[V:1] !wedge!Ge3/=B/ | 
[V:2] G,,[GCG,][F=DG,] | 
[V:1] c/{/a}a/gA | 
[V:2] C,[ECE,][ECF,] | 
[V:1] !wedge!Ge3/=B/ | 
[V:2] G,,[GCG,][F=DG,] | 
[V:1] =d/c/c'a/f/ | 
[V:2] x[_EG,]x & C,2z | 
[V:1] g/=d/e/=B/c/G/ | 
[V:2] z3 | 
[V:1] A/F/G/=D/F/_F/ | 
[V:2] z3 | 
[V:1] E[c3/E3/][d/F/] | 
[V:2] [A,,A,,,][CA,E,][CA,E,] | 
[V:1] [c/E/][B/D/][AC][c_G] | 
[V:2] [A,A,,][EA,E,][EA,E,] | 
[V:1] [dF][e3/A3/][f/d/] | 
[V:2] [D,D,,][FDA,][FDA,] | 
[V:1] [=d/=B/][f/_d/][ec][aA] | 
[V:2] [A,,A,,,][ECA,E,][ECA,E,] | 
[V:1] zE=E/{/_e}B/ & xc3/d/ | 
[V:2] A,,[CE,]G,, | 
[V:1] [c/=E/][B/C/][AF][c_E] | 
[V:2] [B,G,C,]F,,[A,F,] | 
[V:1] FG3/A/ & E=DD- | 
[V:2] [B,,B,,,][A,F,B,,][A,F,B,,] | 
[V:1] =A/c/B/e/F & =D_D!accent!D | 
[V:2] E,,[A,E,][G,E,] | 
[V:1] [E/D/] z/!accent!CC/F/ & xc3/d/ | 
[V:2] [A,,A,,,][EA,E,][EA,E,] | 
[V:1] [c/E/]>[B/D/][AC][c_G] | 
[V:2] [A,A,,][EA,E,][EA,E,] | 
[V:1] [dF][e3/A3/][f/d/] | 
[V:2] [D,D,,][FDA,][FDA,] | 
[V:1] [=d/=B/]>[f/_d/][ec][c'a] | 
[V:2] [A,,A,,,][ECA,E,][ACA,E,] | 
[V:1] z[c=E]{/_e} [d3//B3//][c//E//] | 
[V:2] [G,,G,,,][CB,G,][=EB,G,C,] | 
[V:1] [c/A/]>[B/G/][AF][c=D] | 
[V:2] [F,,F,,,][CF,][CA,F,] | 
[V:1] [GE][e3/G3/][=B/F/] | 
[V:2] [G,G,,][CG,][=DG,] | 
[V:1] [c/E/][a/f/].[ge][A=D] | 
[V:2] C,[ECE,][CF,] | 
[V:1] [GE][e3/G3/][=B/F/] | 
[V:2] [G,G,,][CG,][=DG,] | 
[V:1] [c/E/]{/b}[a/f/].[ge][A=D] | 
[V:2] C,[ECE,][CF,] | 
[V:1] [GE][e3/G3/][=B/F/] | 
[V:2] [G,G,,][CG,][=DG,] | 
[V:1] [=d/F/]>[c/E/] {/c}.c'a/f/ | 
[V:2] x[EG,]x & C,2z | 
[V:1] g/=d/e/=B/c/G/ | 
[V:2] z3 | 
[V:1] A/F/G/=D/E/C/ | 
[V:2] z3 | 
[V:1] {/B,}!accent!F2G/A/ | 
[V:2] D,[B,A,][B,A,]- | 
[V:1] B/c<d_e/ & =E/G/Fx | 
[V:2] [B,2A,2][B,A,] | 
[V:1] =e/g/fc | 
[V:2] [B,A,][B,A,][B,A,] | 
[V:1] _e!accent!d3/c/ | 
[V:2] .B,,[AFB,][AFB,] | 
[V:1] {/c}!accent!F2G/A/ | 
[V:2] D,[B,A,][B,A,]-[K:clef=treble] | 
[V:1] B/c<d_e/ | 
[V:2] =E/G/F[B,A,][K:clef=bass] & [A,2G,2]x | 
[V:1] =e/g/fB | 
[V:2] [B,A,][DA,][DG,] & E,2x | 
[V:1] d!accent!c3/A/ | 
[V:2] A,,[CA,E,][CA,=E,] | 
[V:1] {/[B,F,]}!accent!F2G/A/ | 
[V:2] [D,D,,][B,A,][B,A,]-[K:clef=treble] | 
[V:1] B/c/d=d/e/ | 
[V:2] =E/G/F[B,A,]-[K:clef=bass] & [A,2G,2]x | 
[V:1] =e/g/fc | 
[V:2] [B,A,][B,A,][B,A,] | 
[V:1] _e/{/f}e<dc/ | 
[V:2] .B,,[AFB,][AFB,] | 
[V:1] {/c}!accent!F2G/A/ | 
[V:2] D,[B,A,][B,A,][K:clef=treble] | 
[V:1] B/c/de/=e/ & x2x | 
[V:2] =E/G/F[B,A,][K:clef=bass] & [B,2A,2]x | 
[V:1] f/g/ab/=b/ | 
[V:2] D,z[FG,] | 
[V:1] c'/ z// c//c!accent!c | 
[V:2] C,[=EG,][EG,] | 
[V:1] !accent!c>df/e/ | 
[V:2] C,[FA,][FA,] | 
[V:1] z/ z// c//Gc/G/ | 
[V:2] C,,[EG,][EG,] | 
[V:1] B>ce/d/ | 
[V:2] C,[DF,][DF,] | 
[V:1] z/ z// c//c!accent!c- | 
[V:2] .C,,[=ECG,=E,][GB,] | 
[V:1] c/d/af/B/ | 
[V:2] [G/A,/][F/B,/][FA,]C, | 
[V:1] z/ z// c//Gc/G/ | 
[V:2] .C,,/ z// [E//G,//][EG,]!accent![EG,] | 
[V:1] A/B/af/F/ | 
[V:2] [E/F,/][D/G,/]F,[A,C,-] | 
[V:1] x_F_E- & [c/=E/][d/E/]Be | 
[V:2] [G,/C,/][G,/B,,/][G,D,]C,/B,,/ & xxG,/D/ | 
[V:1] [E/C/] z/[AE][AF] | 
[V:2] E,C3/D/ & A,,x2 | 
[V:1] [A/E/]z//[A//D//][AC][A_GE] | 
[V:2] {/CD} C/>B,/A,C | 
[V:1] [AF]z[dA] | 
[V:2] {/D,}DE3/F/[K:clef=treble] | 
[V:1] [c/A/]z//[f//=B//][ec]c | 
[V:2] {/EF} E/>=D/EA[K:clef=bass] & A,3 | 
[V:1] z[AE][AF] | 
[V:2] E,C3/D/ & A,,x2 | 
[V:1] [A/E/]z//[A//D//][AC][AE] | 
[V:2] {/CD} C/>B,/A,[CF,] | 
[V:1] [A=D][GD][FD] | 
[V:2] F,G,3/A,/ & B,,3 | 
[V:1] [^F_D][GD][BD] | 
[V:2] =A,/C/B,/E/=F, & E,x2 | 
[V:1] B//E// x<cd/ & D/ z/CC/F/ | 
[V:2] [E,/A,,/] z/[EA,E,][EA,E,] | 
[V:1] [c/E/]z//[B//D//][AC][cA_GC] | 
[V:2] [A,,A,,,][EA,E,][EA,E,] | 
[V:1] [dFD]e3/f/ & xFF/d/ | 
[V:2] [D,D,,][ADA,][ADA,] | 
[V:1] [=d/=B/]>[f/_d/] {/[ec]}[ec][c'a] | 
[V:2] [A,,A,,,][ECA,E,][ACA,E,] | 
[V:1] xe3/__e/ & z!accent!_G2 | 
[V:2] xA,2- & A,,zC, | 
[V:1] [d/F/][c/_G/][BF][fA] | 
[V:2] A,/=A,/B,B,- & D,2=D, | 
[V:1] [e/G/][=d/A/][cG][gB] | 
[V:2] B,/=B,/C-C/^C/ & E,2=E, | 
[V:1] x2=a & [f/=A/][=e/B/][=dA]c/=B/ | 
[V:2] [=D/F,/][^C/G,/][D^F,][^D=F,] | 
[V:1] [^g/=B/][=g/^c/][^fc]=f & x/ x/x_A/G/ | 
[V:2] [=E/=E,/][E/=A,/][E^A,][=D=B,] | 
[V:1] [=e/G/][_e/=A/][=dA][_d=E] | 
[V:2] C/[C/F,/][C^F,][B,G,] | 
[V:1] [c/=E/][_c/F/][BF][__B=C] | 
[V:2] A,/[A,/D,/][A,=D,][_G,E,] | 
[V:1] [A/_C/][A/_F/] [A/E/] z// =f//[G_D] | 
[V:2] [A,/_F,/][=B,/=D,/][CE,][_B,E,] | 
[V:1] [AC]e3/f/ | 
[V:2] [A,,A,,,][_GCA,][CA,E,] | 
[V:1] e/=d/_da | 
[V:2] A,,[FDA,][DA,F,] | 
[V:1] zc3/d/ | 
[V:2] A,,[=EC=G,][CG,=E,] | 
[V:1] c/B/f/e/G | 
[V:2] A,,[_EDG,][DB,E,] | 
[V:1] Ae3/f/ | 
[V:2] A,,,[_GCA,][CA,E,] | 
[V:1] e/=d/_d/b/a | 
[V:2] A,,[_FDA,][B,A,_F,] | 
[V:1] z_c3/d/ | 
[V:2] A,,[E_CA,][CA,E,] | 
[V:1] _c/B/_f/e/G | 
[V:2] E,,[DG,E,]E,, | 
[V:1] z=c3/d/ | 
[V:2] A,,[CA,E,]A,, | 
[V:1] c/B/f/e/G | 
[V:2] E,,[DG,E,]E,, | 
[V:1] z=B3/c/ | 
[V:2] =D,,[=D=D,][GDG,] | 
[V:1] _c/B/_f/e/G & _FxD- | 
[V:2] [G,_D,][DB,,][B,E,]- | 
[V:1] G/A/=D/E/A/_d/ & x<Ax | 
[V:2] A,,2[CA,E,]- & [B,E,][CA,E,]x | 
[V:1] c/B/A/c/f/c/ | 
[V:2] [CA,E,][CA,E,]z | 
[V:1] e/d/c/e/a/f/ | 
[V:2] A,,,[CA,E,]z | 
[V:1] e/c'/g/a/=d/g/ | 
[V:2] zz[K:clef=treble][A=B,A,] | 
[V:1] f/=e/_e/=d/_d/=B/ | 
[V:2] [ACA,]zz[K:clef=bass] | 
[V:1] c/=B/_B/=A/_A/=E/ | 
[V:2] E/=D/_D/C/_C/B,/ | 
[V:1] G/F/_F/E/D/_A,/ | 
[V:2] =A,/_A,/G,/_G,/F,/_F,/ | 
[V:1] C/E/A/c/e/a/ | 
[V:2] E,/A,,/E,/C/E/c/ | 
[V:1] a'zz | 
[V:2] A,zz | 
[V:1] .[CA,E,].[CA,E,]z | 
[V:2] [A,,A,,,][A,,A,,,]z | 
[V:1] .[CA,E,].[CA,E,]z |]  
[V:2] [A,,A,,,][A,,A,,,]z |]
